widgets/TimeSlider/css/images/live.svg

<?xml version="1.0" encoding="UTF-8"?>
<svg width="22px" height="10px" viewBox="0 0 22 10" version="1.1" xmlns="http://www.w3.org/2000/svg" xmlns:xlink="http://www.w3.org/1999/xlink">
    <!-- Generator: Sketch 50.2 (55047) - http://www.bohemiancoding.com/sketch -->
    <title>live</title>
    <desc>Created with Sketch.</desc>
    <defs></defs>
    <g id="Page-1" stroke="none" stroke-width="1" fill="none" fill-rule="evenodd">
        <g id="Runtime-live" transform="translate(-945.000000, -684.000000)">
            <g id="live" transform="translate(945.000000, 684.000000)">
                <polygon id="Rectangle" fill="#AD6013" points="0 0 22 0 22 10 0 10"></polygon>
                <path d="M2.97724991,7.08725675 L5.45816882,7.08725675 L5.45816882,7.77777778 L2.2,7.77777778 L2.2,2.22222222 L2.97724991,2.22222222 L2.97724991,7.08725675 Z M7.90179547,7.77777778 L7.12454556,7.77777778 L7.12454556,2.22222222 L7.90179547,2.22222222 L7.90179547,7.77777778 Z M12.0098361,6.77338355 L12.0333891,6.77338355 L13.7056541,2.22222222 L14.5457121,2.22222222 L12.3631315,7.77777778 L11.6408386,7.77777778 L9.4739601,2.22222222 L10.3375711,2.22222222 L12.0098361,6.77338355 Z M16.8951266,7.08725675 L19.8,7.08725675 L19.8,7.77777778 L16.1178767,7.77777778 L16.1178767,2.22222222 L19.6822349,2.22222222 L19.6822349,2.90489642 L16.8951266,2.90489642 L16.8951266,4.56842436 L19.5173637,4.56842436 L19.5173637,5.2354049 L16.8951266,5.2354049 L16.8951266,7.08725675 Z" id="LIVE" fill="#FFFFFF"></path>
            </g>
        </g>
    </g>
</svg>

<svg width="22" height="10" xmlns="http://www.w3.org/2000/svg"><g fill="none" fill-rule="evenodd"><path fill="#AD6013" d="M0 0h22v10H0z"/><path d="M2.977 7.087h2.481v.69H2.2V2.223h.777v4.865zm4.925.69h-.777V2.223h.777v5.556zm4.108-1.004h.023l1.673-4.55h.84l-2.183 5.555h-.722L9.474 2.222h.864l1.672 4.551zm4.885.314H19.8v.69h-3.682V2.223h3.564v.683h-2.787v1.663h2.622v.667h-2.622v1.852z" fill="#FFF"/></g></svg>
